X: 300
M: C
L: 1/8
K: G
V: 1
d/c/ |\
|: d |\
ecce dBgB | cAdc BGGA |
EGDG CAAC | B,GA,F G3 :|
V: 2 clef=bass middle=d
z |\
zafg G4 | d'bag G2z2 |\
g2fg a2A2 | d2aA d3 :|
|: z |\
c2z2 b2g2 | f2d2 G2z2 |
g2f2 g2z2 | g2f2 g2z2 |\
g2c2 d2z2 | b2c'2 b2z2 |\
c'2b2 a2f2 | g2dD G3 :|

